src/next/cmd/sc_fontworkshapetype.fontwork-fade-up-and-right.svg

<svg height="128" viewBox="0 0 128 128" width="128" xmlns="http://www.w3.org/2000/svg" xmlns:xlink="http://www.w3.org/1999/xlink"><linearGradient id="a" gradientUnits="userSpaceOnUse" x1="64" x2="64" y1="128" y2="0"><stop offset="0" stop-color="#fff"/><stop offset=".46428573" stop-color="#fff"/><stop offset=".78125" stop-color="#f1f1f1"/><stop offset=".90625" stop-color="#eaeaea"/><stop offset="1" stop-color="#dfdfdf"/></linearGradient><linearGradient id="b" gradientUnits="userSpaceOnUse" x1="64" x2="64" y1="128" y2="0"><stop offset="0" stop-color="#7c9fcf"/><stop offset=".5" stop-color="#7c9ece"/><stop offset="1" stop-color="#7b9dcf"/></linearGradient><path d="m119.76758.09765625a7.9073401 7.9073401 0 0 0 -2.42774.45703125l-111.9999962 40.0000005a7.9073401 7.9073401 0 0 0 -5.2460938 7.445312v72a7.9073401 7.9073401 0 0 0 13.052734 6.00391l111.999996-96.000004a7.9073401 7.9073401 0 0 0 2.75977-6.003906v-16a7.9073401 7.9073401 0 0 0 -8.13867-7.90234375z" fill="url(#b)"/><path d="m8 48 112-40v16l-112 96z" fill="url(#a)"/></svg>

<?xml version="1.0" encoding="UTF-8" standalone="no"?>
<svg
   xmlns:dc="http://purl.org/dc/elements/1.1/"
   xmlns:cc="http://creativecommons.org/ns#"
   xmlns:rdf="http://www.w3.org/1999/02/22-rdf-syntax-ns#"
   xmlns:svg="http://www.w3.org/2000/svg"
   xmlns="http://www.w3.org/2000/svg"
   xmlns:sodipodi="http://sodipodi.sourceforge.net/DTD/sodipodi-0.dtd"
   xmlns:inkscape="http://www.inkscape.org/namespaces/inkscape"
   height="16"
   viewBox="0 0 16 16"
   width="16"
   version="1.1"
   id="svg26"
   sodipodi:docname="sc_fontworkshapetype.fontwork-fade-up-and-right.svg"
   inkscape:version="0.92.3 (2405546, 2018-03-11)"
   inkscape:export-filename="/home/rizmut/Dokumen/Rizmut/Github/libreoffice-style-karasa-jaga/src/next/cmd/sc_fontworkshapetype.fontwork-fade-up-and-right.png"
   inkscape:export-xdpi="96"
   inkscape:export-ydpi="96">
  <metadata
     id="metadata32">
    <rdf:RDF>
      <cc:Work
         rdf:about="">
        <dc:format>image/svg+xml</dc:format>
        <dc:type
           rdf:resource="http://purl.org/dc/dcmitype/StillImage" />
        <dc:title></dc:title>
      </cc:Work>
    </rdf:RDF>
  </metadata>
  <defs
     id="defs30" />
  <sodipodi:namedview
     pagecolor="#ffffff"
     bordercolor="#666666"
     borderopacity="1"
     objecttolerance="10"
     gridtolerance="10"
     guidetolerance="10"
     inkscape:pageopacity="0"
     inkscape:pageshadow="2"
     inkscape:window-width="1366"
     inkscape:window-height="714"
     id="namedview28"
     showgrid="false"
     inkscape:zoom="7.375"
     inkscape:cx="-4.1196273"
     inkscape:cy="1.3410522"
     inkscape:window-x="0"
     inkscape:window-y="28"
     inkscape:window-maximized="1"
     inkscape:current-layer="svg26" />
  <linearGradient
     id="a"
     gradientUnits="userSpaceOnUse"
     x1="64"
     x2="64"
     y1="128"
     y2="0">
    <stop
       offset="0"
       stop-color="#fff"
       id="stop2" />
    <stop
       offset=".46428573"
       stop-color="#fff"
       id="stop4" />
    <stop
       offset=".78125"
       stop-color="#f1f1f1"
       id="stop6" />
    <stop
       offset=".90625"
       stop-color="#eaeaea"
       id="stop8" />
    <stop
       offset="1"
       stop-color="#dfdfdf"
       id="stop10" />
  </linearGradient>
  <linearGradient
     id="b"
     gradientUnits="userSpaceOnUse"
     x1="64"
     x2="64"
     y1="128"
     y2="0">
    <stop
       offset="0"
       stop-color="#7c9fcf"
       id="stop13" />
    <stop
       offset=".5"
       stop-color="#7c9ece"
       id="stop15" />
    <stop
       offset="1"
       stop-color="#7b9dcf"
       id="stop17" />
  </linearGradient>
  <g
     transform="matrix(0.125,0,0,0.125,-1.8435365e-8,-7.9849019e-5)"
     id="g24">
    <path
       d="M 119.76758,0.09765625 A 7.9073401,7.9073401 0 0 0 117.33984,0.5546875 L 5.3398438,40.554688 A 7.9073401,7.9073401 0 0 0 0.09375,48 v 72 a 7.9073401,7.9073401 0 0 0 13.052734,6.00391 L 125.14648,30.003906 A 7.9073401,7.9073401 0 0 0 127.90625,24 V 8 a 7.9073401,7.9073401 0 0 0 -8.13867,-7.90234375 z"
       id="path20"
       style="fill:url(#b)"
       inkscape:connector-curvature="0" />
    <path
       d="M 8,48 120,8 V 24 L 8,120 Z"
       id="path22"
       style="fill:url(#a)"
       inkscape:connector-curvature="0" />
  </g>
</svg>
